Papirus/64x64/apps/screencloud.svg

<?xml version="1.0" encoding="UTF-8" standalone="no"?>
<svg xmlns="http://www.w3.org/2000/svg" height="64" width="64" version="1">
 <path style="opacity:0.2" d="m 57.859628,25.332211 a 12.272718,11.99992 0 0 1 -2.632782,6.468757 c 0.356617,0.143939 0.690935,0.328817 1.027333,0.507816 a 12.272718,11.99992 0 0 0 1.656229,-5.97656 12.272718,11.99992 0 0 0 -0.05078,-0.999993 z M 7.495963,27.792194 a 20.453864,19.999867 0 0 0 -0.0428,1.207992 20.453864,19.999867 0 0 0 0.312498,3.300778 c 0.1270471,-0.06732 0.2449983,-0.148499 0.3749975,-0.210938 A 20.453864,19.999867 0 0 1 7.496063,27.792054 Z m -5.4959635,16.407891 0,1.999987 C 1.9999995,52.184032 6.8609672,57 12.898327,57 l 38.203746,0 C 57.138033,57 62,52.184032 62,46.200072 l 0,-1.999987 c 0,5.98396 -4.861967,10.799928 -10.897927,10.799928 l -38.203746,0 c -6.0369598,0 -10.8979275,-4.815968 -10.8979275,-10.799928 z"/>
 <path style="fill:#569cde" d="M 27.909827,8.0003325 A 20.453864,19.999867 0 0 0 7.4539632,28.000199 20.453864,19.999867 0 0 0 8.1389587,33.088166 C 4.5023829,34.834154 1.9999995,38.51413 1.9999995,42.802101 l 0,2.395784 c 0,5.98396 4.8609677,10.801928 10.8983275,10.801928 l 38.203746,0 C 57.138033,55.999813 62,51.181845 62,45.197885 l 0,-2.395784 c 0,-4.53457 -2.793581,-8.393944 -6.772954,-9.999933 A 12.272718,11.99992 0 0 0 57.909028,25.334217 12.272718,11.99992 0 0 0 45.635109,13.333697 12.272718,11.99992 0 0 0 42.283132,13.794494 20.453864,19.999867 0 0 0 27.909227,8.0003325 Z"/>
 <path style="opacity:0.2" d="M 31.9998,19.000253 A 15.999894,15.999894 0 0 0 15.999906,35.000146 15.999894,15.999894 0 0 0 31.9998,51.00004 15.999894,15.999894 0 0 0 47.999694,35.000146 15.999894,15.999894 0 0 0 31.9998,19.000253 Z m 0,3.999973 A 11.99992,11.99992 0 0 1 43.99972,35.000146 11.99992,11.99992 0 0 1 31.9998,47.000067 11.99992,11.99992 0 0 1 19.99988,35.000146 11.99992,11.99992 0 0 1 31.9998,23.000226 Z"/>
 <path style="fill:#aaceee" d="M 31.9998,18.000266 A 15.999894,15.999894 0 0 0 15.999906,34.00016 15.999894,15.999894 0 0 0 31.9998,50.000053 15.999894,15.999894 0 0 0 47.999694,34.00016 15.999894,15.999894 0 0 0 31.9998,18.000266 Z m 0,3.999973 A 11.99992,11.99992 0 0 1 43.99972,34.00016 11.99992,11.99992 0 0 1 31.9998,46.00008 11.99992,11.99992 0 0 1 19.99988,34.00016 11.99992,11.99992 0 0 1 31.9998,22.000239 Z"/>
 <path style="opacity:0.2" d="M 31.9998,27.000199 A 7.9999468,7.9999468 0 0 0 23.999853,35.000146 7.9999468,7.9999468 0 0 0 31.9998,43.000093 7.9999468,7.9999468 0 0 0 39.999747,35.000146 7.9999468,7.9999468 0 0 0 31.9998,27.000199 Z"/>
 <path style="fill:#ffffff" d="M 31.9998,26.000213 A 7.9999468,7.9999468 0 0 0 23.999853,34.00016 7.9999468,7.9999468 0 0 0 31.9998,42.000106 7.9999468,7.9999468 0 0 0 39.999747,34.00016 7.9999468,7.9999468 0 0 0 31.9998,26.000213 Z"/>
 <circle style="opacity:0.2" cy="18" cx="19" r="3"/>
 <circle style="fill:#ffffff" cy="17" cx="19" r="3"/>
 <path style="fill:#ffffff;fill-opacity:1;opacity:0.2" d="M 27.910156 8 A 20.453864 19.999867 0 0 0 7.453125 28 A 20.453864 19.999867 0 0 0 7.4746094 28.408203 A 20.453864 19.999867 0 0 1 27.910156 9 A 20.453864 19.999867 0 0 1 42.283203 14.794922 A 12.272718 11.99992 0 0 1 45.634766 14.333984 A 12.272718 11.99992 0 0 1 57.886719 25.902344 A 12.272718 11.99992 0 0 0 57.908203 25.333984 A 12.272718 11.99992 0 0 0 45.634766 13.333984 A 12.272718 11.99992 0 0 0 42.283203 13.794922 A 20.453864 19.999867 0 0 0 27.910156 8 z M 55.78125 33.048828 A 12.272718 11.99992 0 0 1 55.226562 33.802734 C 59.205935 35.408723 62 39.268164 62 43.802734 L 62 42.802734 C 62 38.482667 59.462077 34.778586 55.78125 33.048828 z M 7.9257812 33.199219 C 4.4064399 34.985418 2 38.600162 2 42.802734 L 2 43.802734 C 2 39.514763 4.5020961 35.833879 8.1386719 34.087891 A 20.453864 19.999867 0 0 1 7.9257812 33.199219 z"/>
</svg>

<?xml version="1.0" encoding="UTF-8" standalone="no"?>
<svg xmlns="http://www.w3.org/2000/svg" height="64" width="64" version="1">
 <path style="fill:#569cde" d="m27.91 8.0003a20.454 20 0 0 0 -20.456 20 20.454 20 0 0 0 .6850 5.088c-3.6366 1.746-6.139 5.426-6.139 9.714v2.3958c0 5.984 4.861 10.802 10.898 10.802h38.204c6.036 0 10.898-4.818 10.898-10.802v-2.3958c0-4.5346-2.7936-8.3939-6.773-9.9999a12.273 12 0 0 0 2.682 -7.468 12.273 12 0 0 0 -12.274 -12 12.273 12 0 0 0 -3.352 .460 20.454 20 0 0 0 -14.374 -5.7937z"/>
 <path style="opacity:.2" d="m32 19a16 16 0 0 0 -16 16 16 16 0 0 0 16 16 16 16 0 0 0 16 -16 16 16 0 0 0 -16 -16zm0 4a12 12 0 0 1 12 12 12 12 0 0 1 -12 12 12 12 0 0 1 -12 -12 12 12 0 0 1 12 -12z"/>
 <path style="fill:#aaceee" d="m32 18a16 16 0 0 0 -16 16 16 16 0 0 0 16 16 16 16 0 0 0 16 -16 16 16 0 0 0 -16 -16zm0 4a12 12 0 0 1 12 12 12 12 0 0 1 -12 12 12 12 0 0 1 -12 -12 12 12 0 0 1 12 -12z"/>
 <path style="opacity:.2" d="m32 27a7.9999 7.9999 0 0 0 -8 8 7.9999 7.9999 0 0 0 8 8 7.9999 7.9999 0 0 0 8 -8 7.9999 7.9999 0 0 0 -8 -8z"/>
 <path style="fill:#ffffff" d="m32 26a7.9999 7.9999 0 0 0 -8 8 7.9999 7.9999 0 0 0 8 8 7.9999 7.9999 0 0 0 8 -8 7.9999 7.9999 0 0 0 -8 -8z"/>
 <circle style="opacity:.2" cx="19" r="3" cy="18"/>
 <circle style="fill:#ffffff" cx="19" r="3" cy="17"/>
 <path style="opacity:.2;fill:#ffffff" d="m27.91 8a20.454 20 0 0 0 -20.457 20 20.454 20 0 0 0 .0216 .408 20.454 20 0 0 1 20.435 -19.408 20.454 20 0 0 1 14.373 5.795 12.273 12 0 0 1 3.352 -.461 12.273 12 0 0 1 12.252 11.568 12.273 12 0 0 0 .021 -.568 12.273 12 0 0 0 -12.273 -12 12.273 12 0 0 0 -3.352 .461 20.454 20 0 0 0 -14.373 -5.795zm27.871 25.049a12.273 12 0 0 1 -.554 .754c3.979 1.606 6.773 5.465 6.773 10v-1c0-4.32-2.538-8.024-6.219-9.754zm-47.855.150c-3.5194 1.786-5.9258 5.401-5.9258 9.604v1c0-4.288 2.5021-7.969 6.1387-9.715a20.454 20 0 0 1 -.2129 -.889z"/>
 <path style="opacity:.2" d="m57.887 25.902a12.273 12 0 0 1 -2.6602 6.9004c.18824.07597.37192.16021.55469.24609a12.273 12 0 0 0 2.127 -6.7148 12.273 12 0 0 0 -.02148 -.43164zm-50.412 2.506a20.454 20 0 0 0 -.0215 .592 20.454 20 0 0 0 .4727 4.199c.071515-.0363.14047-.07656.21289-.11133a20.454 20 0 0 1 -.6641 -4.68zm-5.4746 16.789v1c0 5.984 4.8611 10.803 10.898 10.803h38.204c6.036 0 10.898-4.819 10.898-10.803v-1c0 5.984-4.862 10.803-10.898 10.803h-38.204c-6.0369 0-10.898-4.819-10.898-10.803z"/>
</svg>
